X: 26898
T: Minstrel's Fancy, The
R: hornpipe
M: 4/4
K: Dmajor
AFAd BGBd|AFAd f2fe|dfgf edBc|dBAF EFD2|
AFAd BGBd|AFAd f2fe|dfgf edBc|1 defe d2dB:|2 defe d2ef||
gfge cABc|dcde f2ef|gfge cABc|dBAF EFD2|
AFAd BGBd|AFAd f2fe|dfgf edBc|1 defe d2ef:|2 defe d2dB||

